X: 84
T: lvdalspolska efter Lars Orre
S: efter Lars Orre
O: Dalarna, lvdalen
D: BOOT, Virvla
R: Polska
Z: Hkan Lidn, 2008-09-28
M: 9/8
L: 1/8
K: Am
e2 ^g2 b2 a3 | a2 ga ge f2 g| f2 e d e2 f2 g | a2 f dfd e3 |
e2 ^g2 b2 a3 | a2 ga ge f2 g | f2 e d f2 a2 f | fd2 e6 :|
|: B2 cB cd e2 c | B2 A2 B2 c3 | B2 cB cd e2 c | B2 A2 G2 E3 |
B2 cB cd e2 c | B2 A2 B2 c3 | B2 cB cd e2 c | BG2 A6 :|
